X: 172
T: the Strawberry Girl
O: English Tune.
%R: air, march
B: "The Everyday Song Book", 1927
F: http://www.library.pitt.edu/happybirthday/pdf/The_Everyday_Song_Book.pdf
Z: 2017 John Chambers <jc:trillian.mit.edu>
M: 4/4
L: 1/8
K: E
% - - - - - - - - - - - - - - - - - - - - - - - - - - - - -
B2 | E2 E2 G2 (FE) | F2 F2 A2 (GF) | E2 F2 G2 A2 | B6 |
w: 1.~Oh, is it not a* pleas-ant thing        To* wan-der thro' the woods?
w: 2.~To sit with-in the* deep, cool shade,   At* some tall ash-tree's root;
w: 3.~And then the fruit, the* pret-ty fruit, How* sweet the scent it breathes!
%
B2 | c2 c2 e2 (dc) | (Bc) (BA) G2 E2 | F2 (GA) G2 F2 | E6 |]
w: To look up-on the* pret-*ty* flow'rs, And watch the* op-'ning buds.
w: To fill my lit-tle* bas-*ket* with    The sweet and* scent-ed fruit.
w: I love to see its* crim-*son* cheek   Rest on the* bright green leaves.
% - - - - - - - - - - - - - - - - - - - - - - - - - - - - -
